usr/share/icons/biglinux-icons-material-dark/16/actions/grid-axonometric.svg

<svg xmlns="http://www.w3.org/2000/svg" viewBox="0 0 16 16">
  <defs id="defs3051">
    <style type="text/css" id="current-color-scheme">
      .ColorScheme-Text {
        color:#dedede;
      }
      </style>
  </defs>
 <path style="fill:currentColor;fill-opacity:1;stroke:none" 
       d="M 3 2 L 3 4.5546875 L 2.1230469 4.9453125 L 2 4.890625 L 2 5 L 2 5.9824219 L 2 6.09375 L 2.1269531 6.0371094 L 3 6.4199219 L 3 9.703125 L 2.265625 10.023438 L 2.203125 9.9960938 L 2 9.90625 L 2 11 L 2 11.232422 L 2.2636719 11.117188 L 3 11.445312 L 3 14 L 4 14 L 4 11.888672 L 6 12.777344 L 6 13.460938 L 4.796875 13.996094 L 4.7890625 14 L 7.25 14 L 8 13.666016 L 8.75 14 L 11.210938 14 L 11.203125 13.996094 L 10 13.460938 L 10 12.777344 L 12 11.888672 L 12 14 L 13 14 L 13 11.445312 L 13.736328 11.117188 L 14 11.232422 L 14 11 L 14 10.140625 L 14 9.90625 L 13.796875 9.9960938 L 13.734375 10.023438 L 13 9.703125 L 13 6.4199219 L 13.873047 6.0371094 L 14 6.09375 L 14 5.9824219 L 14 4.890625 L 13.876953 4.9453125 L 13 4.5546875 L 13 2 L 12 2 L 12 4.1113281 L 10 3.2226562 L 10 2.5390625 L 11.203125 2.0039062 L 11.210938 2 L 8.75 2 L 8 2.3339844 L 7.25 2 L 4.7890625 2 L 4.796875 2.0039062 L 6 2.5390625 L 6 3.2226562 L 4 4.1113281 L 4 2 L 3 2 z M 8 3.4277344 L 9 3.8710938 L 9 7.078125 L 8 7.515625 L 7 7.078125 L 7 3.8710938 L 8 3.4277344 z M 6 4.3164062 L 6 6.640625 L 4 5.765625 L 4 5.2050781 L 6 4.3164062 z M 10 4.3164062 L 12 5.2050781 L 12 5.765625 L 10 6.640625 L 10 4.3164062 z M 4 6.8574219 L 6 7.7324219 L 6 8.390625 L 4 9.265625 L 4 6.8574219 z M 12 6.8574219 L 12 9.265625 L 10 8.390625 L 10 7.7324219 L 12 6.8574219 z M 8 8.6074219 L 9 9.0449219 L 9 12.128906 L 8 12.572266 L 7 12.128906 L 7 9.0449219 L 8 8.6074219 z M 6 9.4824219 L 6 11.683594 L 4 10.794922 L 4 10.357422 L 6 9.4824219 z M 10 9.4824219 L 12 10.357422 L 12 10.794922 L 10 11.683594 L 10 9.4824219 z "
     class="ColorScheme-Text"
     />
</svg>

<svg xmlns="http://www.w3.org/2000/svg" viewBox="0 0 16 16">
<defs id="defs3051">
<style id="current-color-scheme" type="text/css">
.ColorScheme-Text{color:#dedede}
</style>
</defs>
<path d="M3 2v2.555l-.877.39L2 4.891v1.203l.127-.057L3 6.42v3.283l-.734.32-.063-.027L2 9.906v1.326l.264-.115.736.328V14h1v-2.111l2 .888v.684l-1.203.535-.008.004H7.25l.75-.334.75.334h2.46l-.007-.004L10 13.461v-.684l2-.888V14h1v-2.555l.736-.328.264.115V9.906l-.203.09-.063.027-.734-.32V6.42l.873-.383.127.057V4.89l-.123.054-.877-.39V2h-1v2.111l-2-.888v-.684l1.203-.535.008-.004H8.75L8 2.334 7.25 2H4.79l.007.004L6 2.539v.684L4 4.11V2zm5 1.428 1 .443v3.207l-1 .438-1-.438V3.871zm-2 .888v2.325l-2-.875v-.56zm4 0 2 .89v.56l-2 .875zM4 6.857l2 .875v.659l-2 .875zm8 0v2.409l-2-.875v-.659zm-4 1.75 1 .438v3.084l-1 .443-1-.443V9.045zm-2 .875v2.202l-2-.89v-.437zm4 0 2 .875v.438l-2 .889z" class="ColorScheme-Text" style="fill:currentColor;fill-opacity:1;stroke:none"/>
</svg>
